!!!COM: Anon.
!!!OTL: La/ vem vindo o senhor D. Jorge
!!!OTL: Romanceiro Folclorico do Brasil
!!!CNT: Brasil
!!!OCY: Brasil
!!!ODT: <1971///
!!!PSR: Irmaos Vitale
!!!PSP: Sao Paulo, Brasil
!!!PDT: 1949///
!!!PPE: Rossini Tavares de Lima
!!!PPG: page 14
!! Romance: Juliana E D. Jorge
!! Place: Bairro do Bras, Capital, Sao Paulo, Brasil
**kern
*clefG2
*k[b-e-a-]
*M3/4
*MM100
8g
8ee-
=
4cc
8g
8g
8f
8e-
=
4g
4d
8g
8dd
=
4bn
4g
8an
8b
=
4cc
4cc
8g
8g
=
4ff
8dd
8dd
8bn
8g
=
4ee-
4cc
8g
8a-
=
4g
4ff
8dd
8bn
=
2cc
==
*-
